!!!!SEGMENT: pl-cz--iii-32--006_bolehovsky-josef--missa-ex-d-agnus-dei.krn
!!!cenid: 17xx:840
!!!COM: Bolehovský, Josef
!!!COM-rismid: pe30000404
!!!CDT: 1743-1811
!!!CNT: Czech
!!!OPR: Missa ex D
!!!OTL: Agnus Dei
!!!OMV: 006
!!!PDT:
!!!AGN: Sacred; Mass
!!!SMS-siglum: PL-CZ
!!!SMS-shelfmark: III-32
!!!SMS-shelfwork: 001-006 M
!!!SMS-variant:
!!!SMS-altvar:
!!!NIFC-rismid: 300237605
!!!URL-scan: http://repozytorium.nifc.pl/skany/pl-cz-nut--iii-32
!!!ONB-nifc: UWAGA: części Mszy: Kyrie, Gloria, Credo, Sanctus, Benedictus, Agnus Dei, Dona nobis
!!!key:
**kern	**fba	**dynam	**kern	**dynam	**kern	**dynam	**kern	**dynam	**kern	**text	**kern	**text	**kern	**text	**dynam	**kern	**text	**dynam	**kern	**kern	**kern	**dynam	**kern
*part12	*part12	*part12	*part11	*part11	*part10	*part10	*part9	*part9	*part8	*part8	*part7	*part7	*part6	*part6	*part6	*part5	*part5	*part5	*part4	*part3	*part2	*part2	*part1
*staff12	*staff12	*	*staff11	*staff11	*staff10	*	*staff9	*staff9	*staff8	*staff8	*staff7	*staff7	*staff6	*staff6	*	*staff5	*staff5	*	*staff4	*staff3	*staff2	*staff2	*staff1
*Iorgan	*	*	*Iviola	*	*Ivioln	*	*Ivioln	*	*Iempty	*	*Itenor	*	*Ialto	*	*	*Ivox	*	*	*Iempty	*Iempty	*Ioboe	*	*Ioboe
*I"Organo	*	*	*I"Alto viola obligata	*	*I"Violino Secundo	*	*I"Violino Primo.	*	*I"Baſso	*	*I"Tenore	*	*I"Alto	*	*	*I"Canto	*	*	*I"Clarino Secundo in D:	*I"Clarino Primo in D:	*I"Oboe Secundo. obligato!	*	*I"Oboe Primo obl:
*I'Org.	*	*	*I'A vla	*	*I'Vn II	*	*I'Vn I	*	*I'B.	*	*I'T.	*	*I'A.	*	*	*I'C.	*	*	*	*	*I'Ob. II	*	*I'Ob. I
*clefF4	*	*	*clefC3	*	*clefG2	*	*clefG2	*	*clefF4	*	*clefC4	*	*clefC3	*	*	*clefC1	*	*	*	*	*clefG2	*	*clefG2
*k[f#c#g#]	*	*	*k[c#f#g#]	*	*k[f#c#g#]	*	*k[f#c#g#]	*	*k[f#c#g#]	*	*k[f#c#g#]	*	*k[f#c#g#]	*	*	*k[c#f#g#]	*	*	*	*	*k[f#c#g#]	*	*k[f#c#g#]
*A:	*	*	*A:	*	*A:	*	*A:	*	*A:	*	*A:	*	*A:	*	*	*A:	*	*	*	*	*A:	*	*A:
*M4/4	*	*	*M4/4	*	*M4/4	*	*M4/4	*	*M4/4	*	*M4/4	*	*M4/4	*	*	*M4/4	*	*	*	*	*M4/4	*	*M4/4
*met(c)	*	*	*met(c)	*	*met(c)	*	*met(c)	*	*met(c)	*	*met(c)	*	*met(c)	*	*	*met(c)	*	*	*	*	*met(c)	*	*met(c)
=1	=1	=1	=1	=1	=1	=1	=1	=1	=1	=1	=1	=1	=1	=1	=1	=1	=1	=1	=1	=1	=1	=1	=1
!	!	!	!	!	!	!	!LO:TX:rj:b:t=Agnus	!	!	!	!	!	!	!	!	!	!	!	!	!	!LO:SIC:o:s:=:v:all\right	!	!LO:SIC:o:s:=:v:all\right
!LO:TX:rj:b:t=Agnus	!	!	!	!	!LO:TX:a:t=Adaio&colon; Solo&colon;	!	!LO:TX:a:t=andan&colon; Solo&colon;	!	!	!	!LO:TX:a:t=8	!	!	!	!	!LO:TX:rj:a:t=Adagio Solo	!	!	!	!	!LO:TX:rj:b:t=Agnus	!	!LO:TX:b:t=Agnus
!LO:TX:rj:a:t=adaio	!	!	!LO:TX:rj:b:t=Agnus	!	!LO:TX:b:t=Agnus	!	!LO:SIC:o:s:=:v:znak gg# dopisany później	!	!	!	!LO:TX:a:t=ada&colon;	!	!LO:TX:rj:a:t=Adagio Solo	!	!	!LO:TX:a:t=4&colon;	!	!	!LO:TX:a:t=Agnus Tacet	!LO:TX:a:t=Agnus Tacet	!	!	!LO:TX:a:t=and&colon; Solo
!LO:TX:a:t=Solo	!	!	!	!	!	!	!	!	!	!	!LO:TX:rj:b:t=Agnus	!	!	!	!	!	!	!	!	!	!	!	!
8A\	.	.	8A/	.	16r	.	16r	.	00r	.	00r	.	00r	.	.	00r	.	.	1ryy	1ryy	4cc#\	.	4ee\
.	.	.	.	.	16A/LL|	.	(16c#/LL	.	.	.	.	.	.	.	.	.	.	.	.	.	.	.	.
8r	.	.	8r	.	(16c#/	.	16e/	.	.	.	.	.	.	.	.	.	.	.	.	.	.	.	.
.	.	.	.	.	16A/JJ)	.	16c#/JJ)	.	.	.	.	.	.	.	.	.	.	.	.	.	.	.	.
8A\|	.	.	8A/	.	16r	.	16r	.	.	.	.	.	.	.	.	.	.	.	.	.	16cc#\LL	.	16ee\LL
.	.	.	.	.	16A/LL|	.	(16c#/LL	.	.	.	.	.	.	.	.	.	.	.	.	.	16cc#\	.	16cc#\
8r	.	.	8r	.	(16c#/	.	16e/	.	.	.	.	.	.	.	.	.	.	.	.	.	16a\	.	16aa\
.	.	.	.	.	16A/JJ)	.	16c#/JJ)	.	.	.	.	.	.	.	.	.	.	.	.	.	16cc#\JJ	.	16ee\JJ
8E\	.	.	8e\	.	16r	.	16r	.	.	.	.	.	.	.	.	.	.	.	.	.	16cc#\LL	.	16ee\LL
.	.	.	.	.	16e/LL|	.	(16g#/LL	.	.	.	.	.	.	.	.	.	.	.	.	.	16b\J	.	16dd\J
8r	.	.	8r	.	(16g#X/	.	16b/	.	.	.	.	.	.	.	.	.	.	.	.	.	8b\J	.	8dd\J
.	.	.	.	.	16e/JJ)	.	16g#/JJ)	.	.	.	.	.	.	.	.	.	.	.	.	.	.	.	.
8E\	.	.	8e\	.	16r	.	16r	.	.	.	.	.	.	.	.	.	.	.	.	.	8r	.	8r
.	.	.	.	.	16e/LL|	.	16g#/LL	.	.	.	.	.	.	.	.	.	.	.	.	.	.	.	.
8r	.	.	8r	.	(16g#/	.	16b/	.	.	.	.	.	.	.	.	.	.	.	.	.	8b\	.	8dd\
.	.	.	.	.	16e/JJ)	.	16g#/JJ	.	.	.	.	.	.	.	.	.	.	.	.	.	.	.	.
=2	=2	=2	=2	=2	=2	=2	=2	=2	=2	=2	=2	=2	=2	=2	=2	=2	=2	=2	=2	=2	=2	=2	=2
8E\	7_	.	8e\	.	16r	.	16r	.	.	.	.	.	.	.	.	.	.	.	1ryy	1ryy	4b\	.	4dd\
.	.	.	.	.	16e/LL|	.	16g#/LL	.	.	.	.	.	.	.	.	.	.	.	.	.	.	.	.
8r	.	.	8r	.	(16g#/	.	16b/	.	.	.	.	.	.	.	.	.	.	.	.	.	.	.	.
.	.	.	.	.	16e/JJ)	.	16g#/JJ	.	.	.	.	.	.	.	.	.	.	.	.	.	.	.	.
!	!	!	!	!	!	!	!	!	!	!	!	!	!	!	!	!	!	!	!	!	!	!	!LO:TX:a:t=P:problem:mixed beam
8E\	.	.	8e\	.	16r	.	16r	.	.	.	.	.	.	.	.	.	.	.	.	.	16b\LL	.	16dd\LL
.	.	.	.	.	16e/LL|	.	16g#/LL	.	.	.	.	.	.	.	.	.	.	.	.	.	16dd\	.	16gg#\
8r	.	.	8r	.	(16g#/	.	16b/	.	.	.	.	.	.	.	.	.	.	.	.	.	16dd\	.	16bb\
.	.	.	.	.	16e/JJ)	.	16g#/JJ	.	.	.	.	.	.	.	.	.	.	.	.	.	16b/JJ	.	16dd/JJ
8A\	x	.	8a\	.	16r	.	16r	.	.	.	.	.	.	.	.	.	.	.	.	.	16b/LL	.	16dd\LL
.	.	.	.	.	16A/LL|	.	16c#/LL	.	.	.	.	.	.	.	.	.	.	.	.	.	16a/J	.	16cc#\J
8r	.	.	8r	.	(16c#/	.	16e/	.	.	.	.	.	.	.	.	.	.	.	.	.	8a/J	.	8cc#\J
.	.	.	.	.	16A/JJ)	.	16c#/JJ	.	.	.	.	.	.	.	.	.	.	.	.	.	.	.	.
8AA/	.	.	8A/	.	16r	.	16r	.	.	.	.	.	.	.	.	.	.	.	.	.	8r	.	8r
.	.	.	.	.	16A/LL|	.	16c#/LL	.	.	.	.	.	.	.	.	.	.	.	.	.	.	.	.
8r	.	.	8r	.	(16c#/	.	16e/	.	.	.	.	.	.	.	.	.	.	.	.	.	8a/	.	8cc#\
.	.	.	.	.	16A/JJ)	.	16c#/JJ	.	.	.	.	.	.	.	.	.	.	.	.	.	.	.	.
=3	=3	=3	=3	=3	=3	=3	=3	=3	=3	=3	=3	=3	=3	=3	=3	=3	=3	=3	=3	=3	=3	=3	=3
8E\	.	.	8e\	.	16r	.	16r	.	.	.	.	.	.	.	.	.	.	.	1ryy	1ryy	16a/LL	.	16cc#\LL
.	.	.	.	.	16e/LL|	.	16g#/LL	.	.	.	.	.	.	.	.	.	.	.	.	.	16g#\J	.	16b\J
8r	.	.	8r	.	(16g#/	.	16b/	.	.	.	.	.	.	.	.	.	.	.	.	.	8g#/J	.	8b\J
.	.	.	.	.	16e/JJ)	.	16g#/JJ	.	.	.	.	.	.	.	.	.	.	.	.	.	.	.	.
8E\	.	.	8E/	.	16r	.	16r	.	.	.	.	.	.	.	.	.	.	.	.	.	8r	.	8r
.	.	.	.	.	16e/LL|	.	16g#/LL	.	.	.	.	.	.	.	.	.	.	.	.	.	.	.	.
8r	.	.	8r	.	(16g#/	.	16b/	.	.	.	.	.	.	.	.	.	.	.	.	.	8b/	.	8dd\
.	.	.	.	.	16e/JJ)	.	16g#/JJ	.	.	.	.	.	.	.	.	.	.	.	.	.	.	.	.
8A\	.	.	8A/	.	16r	.	16r	.	.	.	.	.	.	.	.	.	.	.	.	.	16b/LL	.	16dd\LL
.	.	.	.	.	16A/LL|	.	16c#/LL	.	.	.	.	.	.	.	.	.	.	.	.	.	16a/J	.	16cc#\J
8r	.	.	8r	.	(16c#/	.	16e/	.	.	.	.	.	.	.	.	.	.	.	.	.	8a/J	.	8cc#\J
.	.	.	.	.	16A/JJ)	.	16c#/JJ	.	.	.	.	.	.	.	.	.	.	.	.	.	.	.	.
8A\	.	.	8A/	.	16r	.	16r	.	.	.	.	.	.	.	.	.	.	.	.	.	8r	.	8r
.	.	.	.	.	16A/LL|	.	16c#/LL	.	.	.	.	.	.	.	.	.	.	.	.	.	.	.	.
8r	.	.	8r	.	(16c#/	.	16e/	.	.	.	.	.	.	.	.	.	.	.	.	.	8cc#\	.	8ee\
.	.	.	.	.	16A/JJ)	.	16c#/JJ	.	.	.	.	.	.	.	.	.	.	.	.	.	.	.	.
!	!	!	!	!	!LO:LB:g=original	!	!LO:LB:g=original	!	!	!	!	!	!	!	!	!	!	!	!	!	!	!	!
=4	=4	=4	=4	=4	=4	=4	=4	=4	=4	=4	=4	=4	=4	=4	=4	=4	=4	=4	=4	=4	=4	=4	=4
8AA/	.	.	8A/	.	16r	.	16r	.	.	.	.	.	.	.	.	.	.	.	1ryy	1ryy	4cc#\	.	4aa\
.	.	.	.	.	16A/LL|	.	16c#/LL	.	.	.	.	.	.	.	.	.	.	.	.	.	.	.	.
8r	.	.	8r	.	(16c#/	.	16e/	.	.	.	.	.	.	.	.	.	.	.	.	.	.	.	.
.	.	.	.	.	16A/JJ)	.	16c#/JJ	.	.	.	.	.	.	.	.	.	.	.	.	.	.	.	.
*	*	*	*	*	*	*	*	*	*	*	*	*	*	*	*	*	*	*	*	*	*Xtuplet	*	*Xtuplet
4r	.	.	4r	.	8A/L	.	8A/L	.	.	.	.	.	.	.	.	.	.	.	.	.	24cc#\LL	.	24aa\LL
.	.	.	.	.	.	.	.	.	.	.	.	.	.	.	.	.	.	.	.	.	24ee\	.	24gg#\
.	.	.	.	.	.	.	.	.	.	.	.	.	.	.	.	.	.	.	.	.	24dd\JJ	.	24ff#\JJ
.	.	.	.	.	8c#/J	.	8d/J	.	.	.	.	.	.	.	.	.	.	.	.	.	24cc#\LL	.	24ee\LL
.	.	.	.	.	.	.	.	.	.	.	.	.	.	.	.	.	.	.	.	.	24b\	.	24dd\
.	.	.	.	.	.	.	.	.	.	.	.	.	.	.	.	.	.	.	.	.	24a\JJ	.	24cc#\JJ
4r	.	.	2r	.	4e/	.	4e/	.	.	.	.	.	.	.	.	.	.	.	.	.	8a/\L	.	8cc#\L
.	.	.	.	.	.	.	.	.	.	.	.	.	.	.	.	.	.	.	.	.	8g#/J	.	8b\J
16E\LL|	.	.	.	.	4r	.	4r	.	.	.	.	.	.	.	.	.	.	.	.	.	4r	.	4r
16D\|	.	.	.	.	.	.	.	.	.	.	.	.	.	.	.	.	.	.	.	.	.	.	.
16C#\|	.	.	.	.	.	.	.	.	.	.	.	.	.	.	.	.	.	.	.	.	.	.	.
16BB\JJ|	.	.	.	.	.	.	.	.	.	.	.	.	.	.	.	.	.	.	.	.	.	.	.
!	!	!	!	!	!	!	!	!	!	!	!	!	!	!	!	!	!	!	!	!	!LO:LB:g=original	!	!LO:LB:g=original
=5	=5	=5	=5	=5	=5	=5	=5	=5	=5	=5	=5	=5	=5	=5	=5	=5	=5	=5	=5	=5	=5	=5	=5
!	!	!LO:DY:a	!	!	!	!LO:DY:a	!	!	!	!	!	!	!	!	!	!	!	!	!	!	!LO:TX:a:t=2	!	!LO:TX:a:t=2
8AA/	.	p	16r	.	4cc#\	p	4ee\	.	00r	.	00r	.	1r	.	.	4ee\	A-	.	1ryy	1ryy	0r	.	0r
.	.	.	16c#\LL|	.	.	.	.	.	.	.	.	.	.	.	.	.	.	.	.	.	.	.	.
8r	.	.	(16e\	.	.	.	.	.	.	.	.	.	.	.	.	.	.	.	.	.	.	.	.
.	.	.	16c#\JJ)	.	.	.	.	.	.	.	.	.	.	.	.	.	.	.	.	.	.	.	.
8A\	.	.	16r	.	(16cc#\LL	.	16ee\LL	.	.	.	.	.	.	.	.	16ee\LL	.	.	.	.	.	.	.
.	.	.	16c#\LL|	.	16a\)	.	16cc#\	.	.	.	.	.	.	.	.	16cc#\JJ	.	.	.	.	.	.	.
8r	.	.	(16e\	.	16cc#\|	.	16aa\	.	.	.	.	.	.	.	.	16aa\LL	-gnus	.	.	.	.	.	.
.	.	.	16c#\JJ)	.	16cc#\JJ|	.	16ee\JJ	.	.	.	.	.	.	.	.	16ee\JJ	.	.	.	.	.	.	.
8E\	.	.	16r	.	(16cc#\LL	.	16ee\LL	.	.	.	.	.	.	.	.	16ee\LL	De-	.	.	.	.	.	.
.	.	.	16e\LL|	.	16b\J)	.	16dd\J	.	.	.	.	.	.	.	.	16dd\JJ	.	.	.	.	.	.	.
8r	.	.	(16g#\	.	8b\J|	.	8dd\J	.	.	.	.	.	.	.	.	8dd\	-i	.	.	.	.	.	.
.	.	.	16e\JJ)	.	.	.	.	.	.	.	.	.	.	.	.	.	.	.	.	.	.	.	.
!	!	!	!LO:LB:g=original	!	!	!	!	!	!	!	!	!	!	!	!	!	!	!	!	!	!	!	!
8E\	.	.	16r	.	8r	.	8r	.	.	.	.	.	.	.	.	8r	.	.	.	.	.	.	.
.	.	.	16e\LL|	.	.	.	.	.	.	.	.	.	.	.	.	.	.	.	.	.	.	.	.
8r	.	.	(16g#\	.	8b\	.	8dd\	.	.	.	.	.	.	.	.	8dd\	qui	.	.	.	.	.	.
.	.	.	16e\JJ)	.	.	.	.	.	.	.	.	.	.	.	.	.	.	.	.	.	.	.	.
!LO:LB:g=original	!	!	!	!	!	!	!	!	!	!	!	!	!	!	!	!	!	!	!	!	!	!	!
=6	=6	=6	=6	=6	=6	=6	=6	=6	=6	=6	=6	=6	=6	=6	=6	=6	=6	=6	=6	=6	=6	=6	=6
8E\	.	.	16r	.	4b\	.	4dd\	.	.	.	.	.	2r	.	.	4dd\	tol-	.	1ryy	1ryy	.	.	.
.	.	.	16e\LL|	.	.	.	.	.	.	.	.	.	.	.	.	.	.	.	.	.	.	.	.
8r	.	.	(16g#\	.	.	.	.	.	.	.	.	.	.	.	.	.	.	.	.	.	.	.	.
.	.	.	16e\JJ)	.	.	.	.	.	.	.	.	.	.	.	.	.	.	.	.	.	.	.	.
8E\	.	.	16r	.	(16b\LL	.	16dd\LL	.	.	.	.	.	.	.	.	16dd\LL	-lis	.	.	.	.	.	.
.	.	.	16e\LL|	.	16dd\	.	16gg#\	.	.	.	.	.	.	.	.	16gg#\JJ	.	.	.	.	.	.	.
8r	.	.	(16g#\	.	16dd\	.	16bb\	.	.	.	.	.	.	.	.	16bb\LL	pec-	.	.	.	.	.	.
.	.	.	16e\JJ)	.	16b\JJ)	.	16dd\JJ	.	.	.	.	.	.	.	.	16dd\JJ	.	.	.	.	.	.	.
8A\	.	.	16r	.	(16b\LL	.	16dd\LL	.	.	.	.	.	4r	.	.	16dd\LL	-ca-	.	.	.	.	.	.
.	.	.	16c#\LL|	.	16a\J)	.	16cc#\J	.	.	.	.	.	.	.	.	16cc#\JJ	.	.	.	.	.	.	.
8r	.	.	(16e\	.	8a\J	.	8cc#\J	.	.	.	.	.	.	.	.	8cc#\	-ta	.	.	.	.	.	.
.	.	.	16c#\JJ)	.	.	.	.	.	.	.	.	.	.	.	.	.	.	.	.	.	.	.	.
8AA/	.	.	16r	.	8r	.	8r	.	.	.	.	.	8r	.	.	8r	.	.	.	.	.	.	.
.	.	.	16c#\LL|	.	.	.	.	.	.	.	.	.	.	.	.	.	.	.	.	.	.	.	.
!	!	!	!	!	!	!	!	!	!	!	!	!	!LO:SIC:o:s:=:v:all\right global	!	!	!	!	!	!	!	!	!	!
8r	.	.	(16e\	.	8a/	.	8cc#\	.	.	.	.	.	8a\	Qui	.	8cc#\	Qui	.	.	.	.	.	.
.	.	.	16c#\JJ)	.	.	.	.	.	.	.	.	.	.	.	.	.	.	.	.	.	.	.	.
=7	=7	=7	=7	=7	=7	=7	=7	=7	=7	=7	=7	=7	=7	=7	=7	=7	=7	=7	=7	=7	=7	=7	=7
8E\	.	.	16r	.	16a/LL	.	16cc#\LL	.	.	.	.	.	16a\LL	tol-	.	16cc#\LL	tol-	.	1ryy	1ryy	2r	.	2r
.	.	.	16e\LL|	.	16g#/J	.	16b\J	.	.	.	.	.	16g#\JJ	.	.	16b\JJ	.	.	.	.	.	.	.
8r	.	.	(16g#\	.	8g#/J	.	8b\J	.	.	.	.	.	8g#\	-lis	.	8b\	-lis	.	.	.	.	.	.
.	.	.	16e\JJ)	.	.	.	.	.	.	.	.	.	.	.	.	.	.	.	.	.	.	.	.
8E\	.	.	16r	.	8r	.	8r	.	.	.	.	.	8r	.	.	8r	.	.	.	.	.	.	.
.	.	.	16e\LL|	.	.	.	.	.	.	.	.	.	.	.	.	.	.	.	.	.	.	.	.
8r	.	.	(16g#\	.	8b\	.	8dd\	.	.	.	.	.	8b\	pec-	.	8dd\	pec-	.	.	.	.	.	.
.	.	.	16e\JJ)	.	.	.	.	.	.	.	.	.	.	.	.	.	.	.	.	.	.	.	.
8A\	.	.	16r	.	8b\L	.	8dd\L	.	.	.	.	.	16b\LL	-ca-	.	16dd\LL	-ca-	.	.	.	4r	.	4r
.	.	.	16c#\LL	.	.	.	.	.	.	.	.	.	16a\JJ	.	.	16cc#\JJ	.	.	.	.	.	.	.
8r	.	.	16e\	.	8a\J	.	8cc#\J	.	.	.	.	.	8a\	-ta	.	8cc#\	-ta	.	.	.	.	.	.
.	.	.	16c#\JJ	.	.	.	.	.	.	.	.	.	.	.	.	.	.	.	.	.	.	.	.
8AA/	.	.	16r	.	16r	.	16r	.	.	.	.	.	8r	.	.	8r	.	.	.	.	8r	.	8r
.	.	.	16c#\LL	.	16A/LL|	.	16c#/LL	.	.	.	.	.	.	.	.	.	.	.	.	.	.	.	.
8r	.	.	16e\	.	(16c#/	.	16e/	.	.	.	.	.	8cc#\	pec-	.	8ee\	pec-	.	.	.	8cc#\	.	8ee\
.	.	.	16c#\JJ	.	16A/JJ)	.	16c#/JJ	.	.	.	.	.	.	.	.	.	.	.	.	.	.	.	.
!	!	!	!	!	!	!	!	!	!	!	!	!	!	!	!	!LO:SIC:t=custos aa na końcu linijki:v	!	!	!	!	!	!	!
!	!	!	!	!	!	!	!	!	!	!	!	!	!	!	!	!LO:LB:g=original	!	!	!	!	!	!	!
=8	=8	=8	=8	=8	=8	=8	=8	=8	=8	=8	=8	=8	=8	=8	=8	=8	=8	=8	=8	=8	=8	=8	=8
4AA/	.	.	16r	.	16r	.	16r	.	.	.	.	.	4cc#\	-ca-	.	4aa\yy	-ca-	.	1ryy	1ryy	4cc#\	.	4aa\
.	.	.	16c#\LL|	.	16A/LL|	.	16c#/LL	.	.	.	.	.	.	.	.	.	.	.	.	.	.	.	.
.	.	.	(16e\	.	(16c#/	.	16e/	.	.	.	.	.	.	.	.	.	.	.	.	.	.	.	.
.	.	.	16c#\JJ)	.	16A/JJ)	.	16c#/JJ	.	.	.	.	.	.	.	.	.	.	.	.	.	.	.	.
*	*	*	*	*	*	*	*	*	*	*	*	*	*Xtuplet	*	*	*	*	*	*	*	*	*	*
8r	.	.	8A/	.	8A/L	.	8A/L	.	.	.	.	.	24cc#\LL	.	.	24aa\LL	.	.	.	.	24cc#\LL	.	24aa\LL
.	.	.	.	.	.	.	.	.	.	.	.	.	24ee\	.	.	24gg#\	.	.	.	.	24ee\	.	24gg#\
.	.	.	.	.	.	.	.	.	.	.	.	.	24dd\JJ	.	.	24ff#\JJ	.	.	.	.	24dd\JJ	.	24ff#\JJ
8D\	.	.	8r	.	8c#/J	.	8d/J	.	.	.	.	.	24cc#\LL	-ta	.	24ee\LL	-ta-	.	.	.	24cc#\LL	.	24ee\LL
.	.	.	.	.	.	.	.	.	.	.	.	.	24b\	.	.	24dd\	.	.	.	.	24b\	.	24dd\
.	.	.	.	.	.	.	.	.	.	.	.	.	24a\JJ	.	.	24cc#\JJ	.	.	.	.	24a\JJ	.	24cc#\JJ
!LO:TX:a:t=P:problem:mixed beam	!	!	!	!	!	!	!	!	!	!	!	!	!	!	!	!	!	!	!	!	!	!	!
.	.	.	.	.	.	.	.	.	.	.	.	.	.	.	.	(>16qqdd/	.	.	.	.	.	.	.
8E\L	4	.	2r	.	4e/	.	4e/	.	.	.	.	.	8a\	mun-	.	8cc#\)	-mu(n)-	.	.	.	8a/L	.	8cc#\L
8EE/J	3	.	.	.	.	.	.	.	.	.	.	.	8g#X\	-di	.	8b\	-di	.	.	.	8g#/J	.	8b\J
!	!	!	!	!	!	!	!	!	!	!	!	!	!	!	!	!	!	!LO:DY:a	!	!	!	!	!
4r	.	.	.	.	4r	.	4r	.	.	.	.	.	4r	.	.	4r	.	p	.	.	4r	.	4r
!	!	!	!	!	!	!	!LO:LB:g=original	!	!	!	!	!	!LO:LB:g=original	!	!	!	!	!	!LO:LB:g=original	!	!	!	!
=9	=9	=9	=9	=9	=9	=9	=9	=9	=9	=9	=9	=9	=9	=9	=9	=9	=9	=9	=9	=9	=9	=9	=9
!	!	!	!	!	!	!	!	!	!	!	!LO:SIC:o:s:=:v:all\right global	!	!	!	!	!	!	!	!	!	!	!	!
8E\	#	.	8e\	.	16r	p	16r	.	4E\	Mi-	4B\	Mi-	4g#\	Mi-	.	4ee\	Mi-	.	1ryy	1ryy	8ee\	.	8gg#\
.	.	.	.	.	16e/LL|	.	16g#/LL	.	.	.	.	.	.	.	.	.	.	.	.	.	.	.	.
8r	.	.	8r	.	(16g#/	.	16b/	.	.	.	.	.	.	.	.	.	.	.	.	.	8r	.	8r
.	.	.	.	.	16e/JJ)	.	16g#/JJ	.	.	.	.	.	.	.	.	.	.	.	.	.	.	.	.
!	!	!	!	!	!LO:LB:g=original	!	!	!	!	!	!	!	!	!	!	!	!	!	!	!	!	!	!
8E\	.	.	8e\	.	16r	.	16r	.	4E\	-ſe-	4B\	-ſe-	4g#\	-ſe-	.	4ee\	-ſe-	.	.	.	8ee\	.	8gg#\
.	.	.	.	.	16e/LL	.	16g#/LL	.	.	.	.	.	.	.	.	.	.	.	.	.	.	.	.
8r	.	.	8r	.	(16g#/	.	16b/	.	.	.	.	.	.	.	.	.	.	.	.	.	8r	.	8r
.	.	.	.	.	16e/JJ)	.	16g#/JJ	.	.	.	.	.	.	.	.	.	.	.	.	.	.	.	.
8E\L	.	.	8e\L	.	16e/LL	.	16g#/LL	.	8E\	-re-	8B\	-re-	16g#\LL	-re-	.	16ee\LL	-re-	.	.	.	16ee\LL	.	16gg#\LL
.	.	.	.	.	16f#/J	.	16a/J	.	.	.	.	.	16a\JJ	.	.	16ff#\JJ	.	.	.	.	16ff#\J	.	16aa\J
8D#X\J	6 5	.	8d#X\J	.	8g#/J	.	8a/J	.	8D#X\	-re	8B\	-re	8a\	-re	.	8ff#\	-re	.	.	.	8ff#\J	.	8aa\J
4r	.	.	4r	.	4r	.	4r	.	4r	.	4r	.	4r	.	.	4r	.	.	.	.	24ff#\LL	.	24aa\LL
.	.	.	.	.	.	.	.	.	.	.	.	.	.	.	.	.	.	.	.	.	24ee\	.	24gg#\
.	.	.	.	.	.	.	.	.	.	.	.	.	.	.	.	.	.	.	.	.	24dd#\JJ	.	24ff#\JJ
.	.	.	.	.	.	.	.	.	.	.	.	.	.	.	.	.	.	.	.	.	24cc#\LL	.	24ee\LL
.	.	.	.	.	.	.	.	.	.	.	.	.	.	.	.	.	.	.	.	.	24b\	.	24dd#X\
.	.	.	.	.	.	.	.	.	.	.	.	.	.	.	.	.	.	.	.	.	24a#\JJ	.	24cc#\JJ
!	!	!	!LO:LB:g=original	!	!	!	!	!	!	!	!	!	!	!	!	!	!	!	!	!	!	!	!
=10	=10	=10	=10	=10	=10	=10	=10	=10	=10	=10	=10	=10	=10	=10	=10	=10	=10	=10	=10	=10	=10	=10	=10
*	*	*	*	*	*	*	*	*	*	*ij	*	*ij	*	*ij	*	*	*ij	*	*	*	*	*	*
8BB/	7_ #_	.	4a\	.	16r	.	16r	.	4BB/	Mi-	4B\	Mi-	4a\	mi-	.	4b\	mi-	.	1ryy	1ryy	4b\	.	4b\
.	.	.	.	.	16B/LL|	.	16d#X/LL	.	.	.	.	.	.	.	.	.	.	.	.	.	.	.	.
8r	.	.	.	.	(16d#X/	.	16f#/	.	.	.	.	.	.	.	.	.	.	.	.	.	.	.	.
.	.	.	.	.	16B/JJ)	.	16d#/JJ	.	.	.	.	.	.	.	.	.	.	.	.	.	.	.	.
8D#X\	.	.	4a\	.	16r	.	16r	.	4D#X/	-ſe-	4B\	-ſe-	4a\	-ſe-	.	4ff#\	-ſe-	.	.	.	4ff#\	.	4aa\
.	.	.	.	.	16B/LL|	.	16d#/LL	.	.	.	.	.	.	.	.	.	.	.	.	.	.	.	.
8r	.	.	.	.	(16d#X/	.	16f#/	.	.	.	.	.	.	.	.	.	.	.	.	.	.	.	.
.	.	.	.	.	16B/JJ)	.	16d#/JJ	.	.	.	.	.	.	.	.	.	.	.	.	.	.	.	.
4E\	x 4	.	16a\LL	.	16f#/LL	.	16a/LL	.	8E\	-re-	8B\	-re-	16a\LL	-re-	.	16ff#\LL	-re-	.	.	.	16ff#\LL	.	16aa\LL
.	x 3	.	16g#\J	.	16e/J	.	16g#/J	.	.	.	.	.	16g#\JJ	.	.	16ee\JJ	.	.	.	.	16ee\J	.	16gg#\J
.	.	.	8g#\J	.	8e/J	.	8g#/J	.	8E\	-re	8B\	-re	8g#\	-re	.	8ee\	-re	.	.	.	8ee\J	.	8gg#\J
4r	.	.	4r	.	4r	.	4r	.	4r	.	4r	.	4r	.	.	4r	.	.	.	.	16b/LL	.	16gg#\LL
.	.	.	.	.	.	.	.	.	.	.	.	.	.	.	.	.	.	.	.	.	16a/	.	16ff#\
.	.	.	.	.	.	.	.	.	.	.	.	.	.	.	.	.	.	.	.	.	16a/	.	16ff#\
.	.	.	.	.	.	.	.	.	.	.	.	.	.	.	.	.	.	.	.	.	16g#/JJ	.	16ee\JJ
=11	=11	=11	=11	=11	=11	=11	=11	=11	=11	=11	=11	=11	=11	=11	=11	=11	=11	=11	=11	=11	=11	=11	=11
8c#\	3_	.	4g#\	.	16r	.	16r	.	4c#\	mi-	4c#\	Mi-	4g#\	mi-	.	4ee\	mi-	.	1ryy	1ryy	4g#/	.	4ee\
.	.	.	.	.	16e/LL|	.	16g#/LL	.	.	.	.	.	.	.	.	.	.	.	.	.	.	.	.
8r	.	.	.	.	(16g#/	.	16b/	.	.	.	.	.	.	.	.	.	.	.	.	.	.	.	.
.	.	.	.	.	16e/JJ)	.	16g#/JJ	.	.	.	.	.	.	.	.	.	.	.	.	.	.	.	.
8A#X\	.	.	4g#\	.	16r	.	16r	.	4A#X\	-ſe-	4c#\	-ſe-	4g#\	-ſe-	.	4ee\	-ſe-	.	.	.	4g#/	.	4ee\
.	.	.	.	.	16e/LL|	.	16g#/LL	.	.	.	.	.	.	.	.	.	.	.	.	.	.	.	.
8r	x	.	.	.	(16g#/	.	16b/	.	.	.	.	.	.	.	.	.	.	.	.	.	.	.	.
.	.	.	.	.	16e/JJ)	.	16g#/JJ	.	.	.	.	.	.	.	.	.	.	.	.	.	.	.	.
!	!	!	!LO:TUP:a:problem:klamra łukowa	!	!	!	!	!	!	!	!	!	!	!	!	!	!	!	!	!	!	!	!
4B\	.	.	24f#\LL	.	4d#X/	.	4f#/	.	8B\	-re-	8B\	-re-	16f#\LL	-re-	.	16dd#X\LL	-re-	.	.	.	24f#/LL	.	24dd#X\LL
.	.	.	24g#\	.	.	.	.	.	.	.	.	.	.	.	.	.	.	.	.	.	24g#/	.	24ee\
.	.	.	.	.	.	.	.	.	.	.	.	.	16g#\JJ	.	.	16ee\JJ	.	.	.	.	.	.	.
.	.	.	24a\JJ	.	.	.	.	.	.	.	.	.	.	.	.	.	.	.	.	.	24a/JJ	.	24ff#\JJ
.	.	.	16a\LL	.	.	.	.	.	8BB/	-re	8B\	-re	8a\	-re	.	8ff#\	-re	.	.	.	16a/LL	.	16ff#\LL
.	.	.	16a\JJ	.	.	.	.	.	.	.	.	.	.	.	.	.	.	.	.	.	16a/JJ	.	16ff#\JJ
*	*	*	*	*	*	*	*	*	*	*Xij	*	*	*	*Xij	*	*	*Xij	*	*	*	*	*	*
!	!	!	!	!	!	!	!	!	!LO:LB:g=original	!	!	!	!	!	!	!	!	!	!	!	!	!	!
8r	.	.	8a\	.	16r	.	16r	.	16r	.	8r	.	16r	.	.	16r	.	.	.	.	8a/	.	8ff#\
.	.	.	.	.	16a/LL	.	16cc#\LL	.	16BB/LL	Mi-	.	.	16a\LL	Mi-	.	16cc#\LL	Mi-	.	.	.	.	.	.
8BB/	.	.	8r	.	16g#/	.	16b\	.	16C#/JJ	.	16B\	mi-	16g#\JJ	.	.	16b\	.	.	.	.	8r	.	8r
!	!	!	!	!	!LO:TX:a:t=T&colon;	!	!	!	!	!	!	!	!	!	!	!	!	!	!	!	!	!	!
.	.	.	.	.	16f#/JJ	.	16a\JJ	.	16D#X/	-ſe-	16B\	-ſe-	16f#\	-ſe-	.	16a\JJ	-ſe-	.	.	.	.	.	.
=12	=12	=12	=12	=12	=12	=12	=12	=12	=12	=12	=12	=12	=12	=12	=12	=12	=12	=12	=12	=12	=12	=12	=12
*	*	*	*	*	*	*	*Xtuplet	*	*	*	*	*	*	*	*	*Xtuplet	*	*	*	*	*	*	*
!LO:TX:rj:a:t=T&colon;	!	!	!	!	!	!	!	!	!	!	!	!	!	!	!	!	!	!	!	!	!	!	!
!LO:TX:a:t=P:problem:mixed beam	!	!	!	!	!LO:TUP:b	!	!LO:TUP:a:problem:klamra łukowa	!	!	!	!	!	!	!	!	!	!	!	!	!	!	!	!
8E\L	.	.	8e\L	.	24e/LL	.	(24g#/LL	.	8E\	-re-	8B\	-re-	24e\LL	-re-	.	24g#\LL	-re-	.	1ryy	1ryy	8r	.	8r
.	.	.	.	.	24f#/	.	24a/	.	.	.	.	.	24f#\	.	.	24a\	.	.	.	.	.	.	.
.	.	.	.	.	24g#/JJ	.	24b/JJ)	.	.	.	.	.	24g#\JJ	.	.	24b\JJ	.	.	.	.	.	.	.
!	!	!	!	!	!LO:TUP:b	!	!LO:TUP:a:problem:klamra łukowa	!	!	!	!	!	!	!	!	!	!	!	!	!	!	!	!
8A\	6 5	.	8e\	.	24a/LL	.	(24cc#\LL	.	8A\	-re	8c#\	-re	24a\LL	-re	.	24cc#\LL	-re	.	.	.	8g#/L	.	8ee\L
.	.	.	.	.	24f#/	.	24dd#X\	.	.	.	.	.	24f#\	.	.	24dd#X\	.	.	.	.	.	.	.
.	.	.	.	.	24g#/JJ	.	24ee\JJ)	.	.	.	.	.	24g#\JJ	.	.	24ee\JJ	.	.	.	.	.	.	.
*	*	*	*	*	*	*	*	*	*	*	*	*Xij	*	*	*	*	*	*	*	*	*	*	*
!	!	!	!	!	!	!	!	!	!LO:TX:a:t=P:problem:mixed beam	!	!	!	!	!	!	!	!	!	!	!	!	!	!
8B\	4	.	8e\	.	8e/L	.	8g#/L	.	8B\L	no-	4B\	no-	8e\L	no-	.	8g#/L	no-	.	.	.	8f#/	.	8ee\
8BB/J	3	.	8d#X\J	.	8d#X/J	.	8f#/J	.	8BB/J	.	.	.	8d#X\J	.	.	8f#/J	.	.	.	.	8f#\J	.	8dd#X\J
!LO:LB:g=original	!	!	!	!	!	!	!	!	!	!	!	!	!	!	!	!	!	!	!	!	!	!	!LO:LB:g=original
!	!	!	!	!	!	!	!LO:TX:a:t=P:problem:mixed beam	!	!	!	!	!	!	!	!	!	!	!	!	!	!	!	!
8E\L	.	.	8e\L	.	8e/L	.	8e/L	.	4E\	-bis	4B\	-bis	4e\	-bis	.	4e/	-biſ	.	.	.	8g#/L	.	8ee\L
!	!	!	!LO:N:vis=	!	!	!	!	!	!	!	!	!	!	!	!	!	!	!	!	!	!	!	!
16E\L	.	.	16.e\L	.	16.g#/L	.	16.ee\L	.	.	.	.	.	.	.	.	.	.	.	.	.	16g#/L	.	16ee\L
16E\JJ	.	.	.	.	.	.	.	.	.	.	.	.	.	.	.	.	.	.	.	.	16g#/JJ	.	16ee\JJ
.	.	.	32e\JJk	.	32g#/JJk	.	32ee\JJk	.	.	.	.	.	.	.	.	.	.	.	.	.	.	.	.
8E\	.	.	8e\	.	8g#/	.	8ee\	.	4r	.	4r	.	4r	.	.	4r	.	.	.	.	8g#/	.	8ee\
!LO:TX:a:t=Solo	!	!	!	!	!	!	!	!	!	!	!	!	!	!	!	!	!	!	!	!	!	!	!
8r	.	.	8r	.	8r	.	8r	.	.	.	.	.	.	.	.	.	.	.	.	.	8r	.	8r
!	!	!	!	!	!	!	!	!	!	!	!	!	!LO:LB:g=original	!	!	!	!	!	!	!	!	!	!
=13	=13	=13	=13	=13	=13	=13	=13	=13	=13	=13	=13	=13	=13	=13	=13	=13	=13	=13	=13	=13	=13	=13	=13
!	!	!	!	!	!	!LO:DY:a	!	!	!	!	!	!	!LO:TX:rj:a:t=Solo	!	!	!LO:TX:a:t=4.	!	!	!	!	!LO:TX:a:t=4	!	!LO:TX:a:t=4
8E\	.	.	16r	p	4g#/	p	4b\	.	00r	.	1r	.	4b\	Ag-	.	00r	.	.	1ryy	1ryy	00r	.	00r
.	.	.	16e\LL|	.	.	.	.	.	.	.	.	.	.	.	.	.	.	.	.	.	.	.	.
8r	.	.	(16g#\	.	.	.	.	.	.	.	.	.	.	.	.	.	.	.	.	.	.	.	.
.	.	.	16e\JJ)	.	.	.	.	.	.	.	.	.	.	.	.	.	.	.	.	.	.	.	.
!	!	!	!	!	!	!	!LO:LB:g=original	!	!	!	!	!	!	!	!	!	!	!	!	!	!	!	!
8E\	.	.	16r	.	(16g#/LL	.	16b\LL	.	.	.	.	.	16b\LL	.	.	.	.	.	.	.	.	.	.
.	.	.	16e\LL|	.	16e/	.	16g#\	.	.	.	.	.	16a\JJ	.	.	.	.	.	.	.	.	.	.
8r	.	.	(16g#\	.	16g#/)	.	16ee\	.	.	.	.	.	16ee\LL	-nus	.	.	.	.	.	.	.	.	.
.	.	.	16e\JJ)	.	16g#/JJ	.	16b\JJ	.	.	.	.	.	16b\JJ	.	.	.	.	.	.	.	.	.	.
8BB/	#_	.	16r	.	(16g#/LL	.	16b\LL	.	.	.	.	.	16b\LL	De-	.	.	.	.	.	.	.	.	.
.	.	.	16d#X\LL|	.	16f#/J)	.	16a\J	.	.	.	.	.	16a\JJ	.	.	.	.	.	.	.	.	.	.
8r	.	.	(16f#\	.	8f#/J|	.	8a\J	.	.	.	.	.	8a\	-i	.	.	.	.	.	.	.	.	.
.	.	.	16d#\JJ)	.	.	.	.	.	.	.	.	.	.	.	.	.	.	.	.	.	.	.	.
!	!	!	!	!	!LO:TX:b:t=V&colon;t&colon;	!	!	!	!	!	!	!	!	!	!	!	!	!	!	!	!	!	!
!	!	!	!	!	!LO:PB:g=original	!	!	!	!	!	!	!	!	!	!	!	!	!	!	!	!	!	!
!	!	!	!	!	!	!	!LO:N:vis=16	!	!	!	!	!	!	!	!	!	!	!	!	!	!	!	!
8BB/	.	.	16r	.	8r	.	8r	.	.	.	.	.	8r	.	.	.	.	.	.	.	.	.	.
.	.	.	16d#\LL|	.	.	.	.	.	.	.	.	.	.	.	.	.	.	.	.	.	.	.	.
8r	.	.	(16f#\	.	8f#/	.	8a/	.	.	.	.	.	8a\	qui	.	.	.	.	.	.	.	.	.
.	.	.	16d#\JJ)	.	.	.	.	.	.	.	.	.	.	.	.	.	.	.	.	.	.	.	.
=14	=14	=14	=14	=14	=14	=14	=14	=14	=14	=14	=14	=14	=14	=14	=14	=14	=14	=14	=14	=14	=14	=14	=14
8BB/	7_ #_	.	16r	.	4f#/	.	4a/	.	.	.	2r	.	4a\	tol-	.	.	.	.	1ryy	1ryy	.	.	.
.	.	.	16d#X\LL|	.	.	.	.	.	.	.	.	.	.	.	.	.	.	.	.	.	.	.	.
8r	.	.	(16f#\	.	.	.	.	.	.	.	.	.	.	.	.	.	.	.	.	.	.	.	.
.	.	.	16d#\JJ)	.	.	.	.	.	.	.	.	.	.	.	.	.	.	.	.	.	.	.	.
!	!	!	!LO:LB:g=original	!	!	!	!	!	!	!	!	!	!	!	!	!	!	!	!	!	!	!	!
8BB/	.	.	16r	.	16f#/LL	.	16a\LL	.	.	.	.	.	16b\LL	-lis	.	.	.	.	.	.	.	.	.
.	.	.	16d#\LL|	.	16a/	.	16dd#X\	.	.	.	.	.	16dd#X\JJ	.	.	.	.	.	.	.	.	.	.
8r	.	.	(16f#\	.	16dd#X/	.	16ff#\	.	.	.	.	.	16ff#\LL	pec-	.	.	.	.	.	.	.	.	.
.	.	.	16d#\JJ)	.	16ff#/JJ	.	16aa\JJ	.	.	.	.	.	16a\JJ	.	.	.	.	.	.	.	.	.	.
!	!	!	!	!	!	!	!	!	!	!	!LO:LB:g=original	!	!	!	!	!	!	!	!	!	!	!	!
!	!	!	!	!	!	!	!	!	!	!	!LO:TX:a:t=Solo	!	!	!	!	!	!	!	!	!	!	!	!
8E\	x	.	16r	.	8ff#\L	.	8aa\L	.	.	.	4r	.	8a\	-ca-	.	.	.	.	.	.	.	.	.
.	.	.	16e\LL|	.	.	.	.	.	.	.	.	.	.	.	.	.	.	.	.	.	.	.	.
8r	.	.	(16g#\	.	8ee\J	.	8gg#\J	.	.	.	.	.	8g#\	-ta	.	.	.	.	.	.	.	.	.
.	.	.	16e\JJ)	.	.	.	.	.	.	.	.	.	.	.	.	.	.	.	.	.	.	.	.
8E\	.	.	16r	.	8r	.	8r	.	.	.	8r	.	8r	.	.	.	.	.	.	.	.	.	.
.	.	.	16g#\LL|	.	.	.	.	.	.	.	.	.	.	.	.	.	.	.	.	.	.	.	.
8r	.	.	(16b\	.	8ee\	.	8gg#\	.	.	.	8e\	pec-	8g#\	qui	.	.	.	.	.	.	.	.	.
.	.	.	16g#\JJ)	.	.	.	.	.	.	.	.	.	.	.	.	.	.	.	.	.	.	.	.
=15	=15	=15	=15	=15	=15	=15	=15	=15	=15	=15	=15	=15	=15	=15	=15	=15	=15	=15	=15	=15	=15	=15	=15
8B\	#	.	16r	.	16ee\LL	.	16gg#\LL	.	.	.	16e\LL	-ca-	8g#\L	tol-	.	.	.	.	1ryy	1ryy	.	.	.
!	!	!	!LO:SIC:o:s:=:v:# dopisany	!	!	!	!	!	!	!	!	!	!	!	!	!	!	!	!	!	!	!	!
.	.	.	16d\LL|	.	16dd#X\J	.	16ff#\J	.	.	.	16d#X\JJ	.	.	.	.	.	.	.	.	.	.	.	.
8r	.	.	(16f#\	.	8dd#\J	.	8ff#\J	.	.	.	8d#\	-ta	8f#\J	-lis	.	.	.	.	.	.	.	.	.
.	.	.	16d\JJ)	.	.	.	.	.	.	.	.	.	.	.	.	.	.	.	.	.	.	.	.
8BB/	.	.	16r	.	8r	.	8r	.	.	.	8r	.	8r	.	.	.	.	.	.	.	.	.	.
.	.	.	16f#\LL|	.	.	.	.	.	.	.	.	.	.	.	.	.	.	.	.	.	.	.	.
*	*	*	*	*	*	*	*	*	*	*	*	*ij	*	*	*	*	*	*	*	*	*	*	*
8r	.	.	(16a\	.	8ff#\	.	8aa\	.	.	.	8f#\	pec-	8a\	pec-	.	.	.	.	.	.	.	.	.
.	.	.	16f#\JJ)	.	.	.	.	.	.	.	.	.	.	.	.	.	.	.	.	.	.	.	.
8E\	.	.	16r	.	16ff#\LL	.	16aa\LL	.	.	.	16f#\LL	-ca-	16a\LL	-ca-	.	.	.	.	.	.	.	.	.
.	.	.	16e\LL|	.	16ee\J	.	16gg#\J	.	.	.	16e\JJ	.	16g#\JJ	.	.	.	.	.	.	.	.	.	.
8r	.	.	(16g#\	.	8ee\J	.	8gg#\J	.	.	.	8e\	-ta	8g#\	-ta	.	.	.	.	.	.	.	.	.
.	.	.	16e\JJ)	.	.	.	.	.	.	.	.	.	.	.	.	.	.	.	.	.	.	.	.
8E\	.	.	16r	.	8r	.	8r	.	.	.	8r	.	8r	.	.	.	.	.	.	.	.	.	.
.	.	.	16g#\LL|	.	.	.	.	.	.	.	.	.	.	.	.	.	.	.	.	.	.	.	.
*	*	*	*	*	*	*	*	*	*	*	*	*Xij	*	*	*	*	*	*	*	*	*	*	*
8r	.	.	(16b\	.	8gg#\	.	8bb\	.	.	.	8g#\	pec-	8b\	pec-	.	.	.	.	.	.	.	.	.
.	.	.	16g#\JJ)	.	.	.	.	.	.	.	.	.	.	.	.	.	.	.	.	.	.	.	.
!	!	!	!	!	!	!	!	!	!	!	!	!	!LO:SIC:t=custos po kresce taktowej:v	!	!	!	!	!	!	!	!	!	!
=16	=16	=16	=16	=16	=16	=16	=16	=16	=16	=16	=16	=16	=16	=16	=16	=16	=16	=16	=16	=16	=16	=16	=16
!	!	!	!	!	!	!	!	!	!	!	!	!	!LO:N:vis=8.	!	!	!	!	!	!	!	!	!	!
4E\	.	.	4e\	.	4gg#\	.	4bb\	.	.	.	4.g#\	-ca-	8b\	-ca-	.	.	.	.	1ryy	1ryy	.	.	.
.	.	.	.	.	.	.	.	.	.	.	.	.	24cc#\LL	.	.	.	.	.	.	.	.	.	.
.	.	.	.	.	.	.	.	.	.	.	.	.	24b\	.	.	.	.	.	.	.	.	.	.
.	.	.	.	.	.	.	.	.	.	.	.	.	24a\JJ	.	.	.	.	.	.	.	.	.	.
!	!	!	!	!	!LO:TUP:a:problem:klamra łukow	!	!	!	!	!	!	!	!	!	!	!	!	!	!	!	!	!	!
8r	.	.	8r	.	24aa\LL	.	24ccc#\LL	.	.	.	.	.	24g#\LL	-ta	.	.	.	.	.	.	.	.	.
.	.	.	.	.	24gg#\	.	24bb\	.	.	.	.	.	24f#\	.	.	.	.	.	.	.	.	.	.
.	.	.	.	.	24ff#\JJ	.	24aa\JJ	.	.	.	.	.	24e\JJ	.	.	.	.	.	.	.	.	.	.
*	*	*	*	*	*	*	*	*	*	*	*Xtuplet	*	*	*	*	*	*	*	*	*	*	*	*
!	!	!	!	!	!LO:TUP:a:problem:klamra łukow	!	!LO:TUP:a:problem:klamra łukowa	!	!	!	!	!	!	!	!	!	!	!	!	!	!	!	!
8A\	6 5	.	8c#\	.	24b/LL	.	(24gg#X\LL	.	.	.	24B\LL	-ta	8e\	.	.	.	.	.	.	.	.	.	.
.	.	.	.	.	24a/	.	24ff#\	.	.	.	24A\	.	.	.	.	.	.	.	.	.	.	.	.
.	.	.	.	.	24g#/JJ	.	24ee\JJ)	.	.	.	24G#\JJ	.	.	.	.	.	.	.	.	.	.	.	.
!LO:TX:a:t=P:problem:mixed beam	!	!	!	!	!	!	!	!	!	!	!	!	!	!	!	!	!	!	!	!	!	!	!
8B\L	4	.	8B/L	.	8g#/L	.	8ee\L	.	.	.	8G#/	mun-	8e\	mun-	.	.	.	.	.	.	.	.	.
8BB/J	#	.	8B/J	.	8f#/J	.	8dd#X\J	.	.	.	8F#/	-di	8d#X\	-di	.	.	.	.	.	.	.	.	.
16B\LL|	.	.	4r	.	4r	.	4r	.	.	.	4r	.	4r	.	.	.	.	.	.	.	.	.	.
16A\|	.	.	.	.	.	.	.	.	.	.	.	.	.	.	.	.	.	.	.	.	.	.	.
16G#\|	.	.	.	.	.	.	.	.	.	.	.	.	.	.	.	.	.	.	.	.	.	.	.
16F#\JJ|	.	.	.	.	.	.	.	.	.	.	.	.	.	.	.	.	.	.	.	.	.	.	.
!	!	!	!	!	!	!	!	!	!	!	!	!	!	!	!	!LO:LB:g=original	!	!	!	!	!	!	!
=17	=17	=17	=17	=17	=17	=17	=17	=17	=17	=17	=17	=17	=17	=17	=17	=17	=17	=17	=17	=17	=17	=17	=17
8E\	.	.	4g#\	.	16r	.	16r	.	4E\	Mi-	4B\	Mi-	4g#\	mi-	.	4ee\	Mi-	.	1ryy	1ryy	8ee\	.	8gg#\
.	.	.	.	.	16e/LL|	.	16g#/LL	.	.	.	.	.	.	.	.	.	.	.	.	.	.	.	.
8r	.	.	.	.	(16g#/	.	16b/	.	.	.	.	.	.	.	.	.	.	.	.	.	8r	.	8r
.	.	.	.	.	16e/JJ)	.	16g#/JJ	.	.	.	.	.	.	.	.	.	.	.	.	.	.	.	.
8E\	.	.	4g#\	.	16r	.	16r	.	4E\	-ſe-	4B\	-ſe-	4g#\	-ſe-	.	4ee\	-ſe-	.	.	.	8ee\	.	8gg#\
.	.	.	.	.	16e/LL|	.	16g#/LL	.	.	.	.	.	.	.	.	.	.	.	.	.	.	.	.
8r	.	.	.	.	(16g#/	.	16b/	.	.	.	.	.	.	.	.	.	.	.	.	.	8r	.	8r
.	.	.	.	.	16e/JJ)	.	16g#/JJ	.	.	.	.	.	.	.	.	.	.	.	.	.	.	.	.
!	!	!	!	!	!	!	!LO:LB:g=original	!	!	!	!	!	!	!	!	!	!	!	!	!	!	!	!
8E\L	.	.	8g#\L	.	16e/LL	.	16g#/LL	.	16E\LL	-re-	8B\	-re-	16g#\LL	-re-	.	16ee\LL	-re-	.	.	.	16ee\LL	.	16gg#\LL
.	.	.	.	.	16f#/J	.	16a/J	.	16D#X\JJ	.	.	.	16a\JJ	.	.	16ff#\JJ	.	.	.	.	16ff#\J	.	16aa\J
8D#X\J	6 5	.	16a\L	.	8f#/J	.	8a/J	.	8D#\	-re	8B\	-re	8a\	-re	.	8ff#\	-re	.	.	.	8ff#\J	.	8aa\J
.	.	.	16a\JJ	.	.	.	.	.	.	.	.	.	.	.	.	.	.	.	.	.	.	.	.
4r	.	.	4r	.	4r	.	4r	.	4r	.	4r	.	4r	.	.	4r	.	.	.	.	16r	.	16r
.	.	.	.	.	.	.	.	.	.	.	.	.	.	.	.	.	.	.	.	.	16a/LL	.	16ff#\LL
.	.	.	.	.	.	.	.	.	.	.	.	.	.	.	.	.	.	.	.	.	16a/	.	16ff#\
.	.	.	.	.	.	.	.	.	.	.	.	.	.	.	.	.	.	.	.	.	16a/JJ	.	16ff#\JJ
=18	=18	=18	=18	=18	=18	=18	=18	=18	=18	=18	=18	=18	=18	=18	=18	=18	=18	=18	=18	=18	=18	=18	=18
*	*	*	*	*	*	*	*	*	*	*ij	*	*ij	*	*ij	*	*	*ij	*	*	*	*	*	*
8E\	.	.	4d\	.	16r	.	16r	.	4G#X\	Mi-	4e\	Mi-	4e\	mi-	.	4e/	Mi-	.	1ryy	1ryy	8dd#\	.	8gg#\
.	.	.	.	.	16B/LL|	.	16g#/LL	.	.	.	.	.	.	.	.	.	.	.	.	.	.	.	.
8r	.	.	.	.	(16d/	.	16b/	.	.	.	.	.	.	.	.	.	.	.	.	.	8r	.	8r
.	.	.	.	.	16B/JJ)	.	16g#/JJ	.	.	.	.	.	.	.	.	.	.	.	.	.	.	.	.
!LO:LB:g=original	!	!	!	!	!	!	!	!	!	!	!	!	!	!	!	!	!	!	!	!	!	!	!
8G#\	6 5	.	4dd\	.	16r	.	16r	.	4G#\	-ſe-	4e\	-ſe-	4b\	-ſe-	.	4ddn\	-ſe-	.	.	.	8b\	.	8dd\
.	.	.	.	.	16B/LL|	.	16g#/LL	.	.	.	.	.	.	.	.	.	.	.	.	.	.	.	.
8r	.	.	.	.	(16d/	.	16b/	.	.	.	.	.	.	.	.	.	.	.	.	.	8r	.	8r
.	.	.	.	.	16B/JJ)	.	16g#/JJ	.	.	.	.	.	.	.	.	.	.	.	.	.	.	.	.
!	!	!	!	!	!	!	!	!	!	!	!	!	!LO:SIC:o:s:=:v:błędna kreska taktowa przed	!	!	!	!	!	!	!	!	!	!
4A\	.	.	16dd\LL	.	16B/LL	.	16g#/LL	.	16G#\LL	-re-	8e\	-re-	16b\LL	-re-	.	16dd\LL	-re-	.	.	.	16b/LL	.	16dd\LL
.	.	.	16cc#\J	.	16c#/J	.	16a/J	.	16A\JJ	.	.	.	16a\JJ	.	.	16cc#\JJ	.	.	.	.	16a/J	.	16cc#\J
.	.	.	8cc#\J	.	8c#/J	.	8a/J	.	8A\	-re	8e\	-re	8a\	-re	.	8cc#\	-re	.	.	.	8a/J	.	8cc#\J
4r	.	.	4r	.	4r	.	4r	.	4r	.	4r	.	4r	.	.	4r	.	.	.	.	16cc#/LL	.	16ee\LL
.	.	.	.	.	.	.	.	.	.	.	.	.	.	.	.	.	.	.	.	.	16b/	.	16dd\
.	.	.	.	.	.	.	.	.	.	.	.	.	.	.	.	.	.	.	.	.	16b/	.	16dd\
.	.	.	.	.	.	.	.	.	.	.	.	.	.	.	.	.	.	.	.	.	16a/JJ	.	16cc#\JJ
*	*	*	*	*	*	*	*	*	*	*Xij	*	*	*	*	*	*	*	*	*	*	*	*	*
!	!	!	!LO:LB:g=original	!	!LO:LB:g=original	!	!	!	!	!	!	!	!	!	!	!	!	!	!	!	!LO:LB:g=original	!	!
=19	=19	=19	=19	=19	=19	=19	=19	=19	=19	=19	=19	=19	=19	=19	=19	=19	=19	=19	=19	=19	=19	=19	=19
!	!	!	!	!	!	!	!	!	!	!	!	!	!	!	!	!	!	!	!	!	!LO:TX:a:t=1	!	!LO:TX:a:t=1
2r	.	.	8b\ 8d\	.	16r	.	16r	.	2r	.	4d\	mi-	4f#\	mi-	.	4b\	mi-	.	1ryy	1ryy	1r	.	1r
.	.	.	.	.	16f#/LL	.	16b\LL	.	.	.	.	.	.	.	.	.	.	.	.	.	.	.	.
.	.	.	8r	.	16f#/	.	16b\	.	.	.	.	.	.	.	.	.	.	.	.	.	.	.	.
.	.	.	.	.	16f#/JJ	.	16b\JJ	.	.	.	.	.	.	.	.	.	.	.	.	.	.	.	.
.	.	.	8b\ 8d\	.	16r	.	16r	.	.	.	4d\	-﻿ſe-	4f#\	-﻿ſe-	.	4b\	-﻿ſe-	.	.	.	.	.	.
.	.	.	.	.	16f#/LL	.	16b\LL	.	.	.	.	.	.	.	.	.	.	.	.	.	.	.	.
.	.	.	8r	.	16f#/	.	16b\	.	.	.	.	.	.	.	.	.	.	.	.	.	.	.	.
.	.	.	.	.	16f#/JJ	.	16b\JJ	.	.	.	.	.	.	.	.	.	.	.	.	.	.	.	.
*	*	*	*	*	*	*	*	*	*	*ij	*	*	*	*	*	*	*	*	*	*	*	*	*
8D\	6	.	8b\ 8d\	.	16r	.	16r	.	4D\	mi-	4d\	-re-	4f#\	-re-	.	4b\	-re-	.	.	.	.	.	.
.	.	.	.	.	16f#/LL	.	16b\LL	.	.	.	.	.	.	.	.	.	.	.	.	.	.	.	.
8r	.	.	8r	.	16f#/	.	16b\	.	.	.	.	.	.	.	.	.	.	.	.	.	.	.	.
.	.	.	.	.	16f#/JJ	.	16b\JJ	.	.	.	.	.	.	.	.	.	.	.	.	.	.	.	.
8D\	.	.	8b\ 8d\	.	16r	.	16r	.	4D\	-﻿ſe-	4d\	-re	4f#\	-re	.	4b\	-re	.	.	.	.	.	.
.	.	.	.	.	16f#/LL	.	16b\LL	.	.	.	.	.	.	.	.	.	.	.	.	.	.	.	.
8r	.	.	8r	.	16f#/	.	16b\	.	.	.	.	.	.	.	.	.	.	.	.	.	.	.	.
.	.	.	.	.	16f#/JJ	.	16b\JJ	.	.	.	.	.	.	.	.	.	.	.	.	.	.	.	.
*	*	*	*	*	*	*	*	*	*	*	*	*Xij	*	*Xij	*	*	*Xij	*	*	*	*	*	*
!	!	!	!	!	!	!	!	!	!LO:LB:g=original	!	!LO:LB:g=original	!	!LO:LB:g=original	!	!	!	!	!	!	!	!	!	!
=20	=20	=20	=20	=20	=20	=20	=20	=20	=20	=20	=20	=20	=20	=20	=20	=20	=20	=20	=20	=20	=20	=20	=20
!LO:TX:a:t=T&colon;	!	!	!	!	!LO:TX:a:t=T&colon;	!	!LO:TUP:a:problem:klamra łukowa	!	!	!	!	!	!	!	!	!	!	!LO:DY:a	!	!	!	!	!
8r	.	.	8r	.	8f#/	.	(24b\LL	.	8D\	-re-	8e\L	no-	4f#\	no-	.	24b\LL	no-	f	1ryy	1ryy	8b\L	.	24b\LL
.	.	.	.	.	.	.	24cc#\	.	.	.	.	.	.	.	.	24cc#\	.	.	.	.	.	.	24cc#\
.	.	.	.	.	.	.	24dd\JJ)	.	.	.	.	.	.	.	.	24dd\JJ	.	.	.	.	.	.	24dd\JJ
*	*	*	*	*	*	*	*	*	*	*	*tuplet	*	*	*	*	*	*	*	*	*	*	*	*
!LO:TX:a:t=P:problem:mixed beam	!	!	!	!	!LO:TUP:a:problem:klamra łukowa	!	!LO:TUP:a:problem:klamra łukowa	!	!	!LO:TUP:a:problem:klamra łukowa	!	!	!	!	!	!	!	!	!	!	!	!	!
8D\L	6 5	.	8f#\L	.	24b\LL	.	(24dd\LL	.	8D\	-re	24f#\L	.	.	.	.	24dd\LL	.	.	.	.	24b\L	.	24dd\LL
.	.	.	.	.	24cc#\	.	24ee\	.	.	.	24e\	.	.	.	.	24ee\	.	.	.	.	24cc#\	.	24ee\
.	.	.	.	.	24dd\JJ	.	24ff#\JJ)	.	.	.	24d\JJ	.	.	.	.	24ff#\JJ	.	.	.	.	24dd\JJ	.	24ff#\JJ
*	*	*	*	*	*	*	*	*	*	*Xij	*	*	*	*	*	*	*	*	*	*	*	*	*
8E\	x 4	.	8e\	.	8c#/L	.	8a/L	.	4E\	no-	8c#\L	.	4e\	.	.	8a\L	.	.	.	.	8cc#\L	.	8ee\L
8EE/J	x 3	.	8e\J	.	8B/J	.	8g#/J	.	.	.	8B\J	.	.	.	.	8g#\J	.	.	.	.	8b\J	.	8dd\J
!	!	!	!	!	!LO:TX:a:t=P:problem:mixed beam	!	!LO:TX:a:t=P:problem:mixed beam	!	!	!	!	!	!	!	!	!	!	!	!	!	!	!	!
.	.	.	.	.	.	.	.	.	.	.	.	.	.	.	.	(>8qqg#/	.	.	.	.	.	.	.
4AA/	.	.	8c#\L	.	8c#/L	.	8a/L	.	4AA/	-bis	4c#\	-bis	4e\	-bis	.	4a\)	-bis	.	.	.	8a\L	.	8cc#\L
.	.	.	16.c#\L	.	16.cc#\L	.	16.aa\L	.	.	.	.	.	.	.	.	.	.	.	.	.	16cc#\L	.	16.aa\L
.	.	.	.	.	.	.	.	.	.	.	.	.	.	.	.	.	.	.	.	.	16cc#\JJ	.	.
.	.	.	32c#\JJk	.	32cc#\JJk	.	32aa\JJk	.	.	.	.	.	.	.	.	.	.	.	.	.	.	.	32aa\JJk
4r	.	.	8c#\	.	8cc#\	.	8aa\	.	4r	.	4r	.	4r	.	.	4r	.	.	.	.	8cc#\	.	8aa\
.	.	.	8r	.	8r	.	8r	.	.	.	.	.	.	.	.	.	.	.	.	.	8r	.	8r
=21	=21	=21	=21	=21	=21	=21	=21	=21	=21	=21	=21	=21	=21	=21	=21	=21	=21	=21	=21	=21	=21	=21	=21
!	!	!LO:DY:rj:a	!	!	!	!	!	!LO:DY:a	!	!	!LO:TX:a:t=2	!	!LO:TX:a:t=2	!	!	!	!	!	!	!	!LO:TX:a:t=1	!	!LO:TX:a:t=1
8A\	.	p	16r	.	4cc#\	.	4ee\	p	0r	.	1r	.	0r	.	.	4ee\	A-	.	1ryy	1ryy	1r	.	1r
.	.	.	16c#\LL|	.	.	.	.	.	.	.	.	.	.	.	.	.	.	.	.	.	.	.	.
8r	.	.	(16e\	.	.	.	.	.	.	.	.	.	.	.	.	.	.	.	.	.	.	.	.
.	.	.	16c#\JJ)	.	.	.	.	.	.	.	.	.	.	.	.	.	.	.	.	.	.	.	.
8A\	.	.	16r	.	(16cc#\LL	.	16ee\LL	.	.	.	.	.	.	.	.	16ee\LL	.	.	.	.	.	.	.
.	.	.	16c#\LL|	.	16a\)	.	16cc#\	.	.	.	.	.	.	.	.	16cc#\JJ	.	.	.	.	.	.	.
8r	.	.	(16e\	.	16cc#\|	.	16aa\	.	.	.	.	.	.	.	.	16aa\LL	-gn(us)	.	.	.	.	.	.
.	.	.	16c#\JJ)	.	16cc#\JJ|	.	16ee\JJ	.	.	.	.	.	.	.	.	16ee\JJ	.	.	.	.	.	.	.
!	!	!	!	!	!	!	!LO:LB:g=original	!	!	!	!	!	!	!	!	!	!	!	!	!	!	!	!
8E\	.	.	16r	.	(16cc#\LL	.	16ee\LL	.	.	.	.	.	.	.	.	16ee\LL	De-	.	.	.	.	.	.
.	.	.	16g#\LL|	.	16b\J)	.	16dd\J	.	.	.	.	.	.	.	.	16dd\JJ	.	.	.	.	.	.	.
8r	.	.	(16b\	.	8b\J|	.	8dd\J	.	.	.	.	.	.	.	.	8dd\	-i	.	.	.	.	.	.
.	.	.	16g#\JJ)	.	.	.	.	.	.	.	.	.	.	.	.	.	.	.	.	.	.	.	.
8E\	.	.	16r	.	8r	.	8r	.	.	.	.	.	.	.	.	8r	.	.	.	.	.	.	.
.	.	.	16e\LL|	.	.	.	.	.	.	.	.	.	.	.	.	.	.	.	.	.	.	.	.
8r	.	.	(16g#\	.	8b\	.	8dd\	.	.	.	.	.	.	.	.	8dd\	Qui	.	.	.	.	.	.
.	.	.	16e\JJ)	.	.	.	.	.	.	.	.	.	.	.	.	.	.	.	.	.	.	.	.
!	!	!	!	!	!	!	!	!	!	!	!	!	!	!	!	!LO:SIC:t=custos dd na końcu linijki:v	!	!	!	!	!	!	!
!	!	!	!	!	!	!	!	!	!	!	!	!	!	!	!	!LO:LB:g=original	!	!	!	!	!	!	!
=22	=22	=22	=22	=22	=22	=22	=22	=22	=22	=22	=22	=22	=22	=22	=22	=22	=22	=22	=22	=22	=22	=22	=22
8E\	7	.	16r	.	4b\	.	8dd\L	.	.	.	1r	.	.	.	.	4dd\	tol-	.	1ryy	1ryy	2r	.	2r
.	.	.	16e\LL|	.	.	.	.	.	.	.	.	.	.	.	.	.	.	.	.	.	.	.	.
8r	.	.	(16g#\	.	.	.	8gg#\	.	.	.	.	.	.	.	.	.	.	.	.	.	.	.	.
.	.	.	16e\JJ)	.	.	.	.	.	.	.	.	.	.	.	.	.	.	.	.	.	.	.	.
8E\	.	.	16r	.	(16b\LL	.	8bb\	.	.	.	.	.	.	.	.	16dd\LL	-lis	.	.	.	.	.	.
.	.	.	16g#\LL|	.	16dd\)	.	.	.	.	.	.	.	.	.	.	16gg#\JJ	.	.	.	.	.	.	.
8r	.	.	(16b\	.	16dd\|	.	8dd\J	.	.	.	.	.	.	.	.	16bb\LL	pec-	.	.	.	.	.	.
.	.	.	16g#\JJ)	.	16b\JJ|	.	.	.	.	.	.	.	.	.	.	16dd\JJ	.	.	.	.	.	.	.
4A\	.	.	8a\	.	8b/L	.	8dd\L	.	.	.	.	.	.	.	.	8dd\	-ca-	.	.	.	8r	.	8r
.	.	.	8r	.	8a/J	.	8cc#\J	.	.	.	.	.	.	.	.	8cc#\	-ta	.	.	.	16a/LL	.	16cc#\LL
.	.	.	.	.	.	.	.	.	.	.	.	.	.	.	.	.	.	.	.	.	16g/JJ	.	16b\JJ
!	!	!	!	!	!	!	!	!	!	!	!	!	!	!	!	!	!	!	!	!	!	!	!LO:LB:g=original
!	!	!	!	!	!	!	!	!	!	!	!	!	!	!	!	!LO:TX:a:t=T&colon;	!	!	!	!	!	!	!
4r	.	.	4r	.	4r	.	4r	.	.	.	.	.	.	.	.	4r	.	.	.	.	16a/LL	.	16cc#\LL
.	.	.	.	.	.	.	.	.	.	.	.	.	.	.	.	.	.	.	.	.	16b/	.	16dd\
.	.	.	.	.	.	.	.	.	.	.	.	.	.	.	.	.	.	.	.	.	16cc#/	.	16ee\
.	.	.	.	.	.	.	.	.	.	.	.	.	.	.	.	.	.	.	.	.	16dd/JJ	.	16ff#\JJ
!LO:TX:b:t=V&colon; cito	!	!	!	!	!	!	!	!	!	!	!	!	!	!	!	!	!	!	!	!	!	!	!
!LO:PB:g=original	!	!	!LO:LB:g=original	!	!	!	!	!	!	!	!	!	!	!	!	!	!	!	!	!	!	!	!
=23	=23	=23	=23	=23	=23	=23	=23	=23	=23	=23	=23	=23	=23	=23	=23	=23	=23	=23	=23	=23	=23	=23	=23
*	*	*	*2\right	*	*	*	*	*	*	*	*2\right	*	*2\right	*	*	*2\right	*	*	*	*	*2\right	*	*2\right
*	*	*	*tremolo	*	*	*	*	*	*	*	*	*	*	*	*	*	*	*	*	*	*	*	*
!	!	!	!	!	!LO:TX:a:t=T&colon;	!	!	!	!	!	!LO:TX:a:t=T&colon;	!	!	!	!	!	!	!	!	!	!LO:TX:a:t=T&colon;	!	!
16.C#/LL	6_ n5_	.	16a\LL	.	16.ee\LL	.	16.ggn\LL	.	2C#/	pec-	2e\	pec-	2a\	pec-	.	2ggn\	Pec-	.	1ryy	1ryy	2ee\	.	2ggn\
.	.	.	16a\	.	.	.	.	.	.	.	.	.	.	.	.	.	.	.	.	.	.	.	.
32C#/K	.	.	.	.	32ee\K	.	32gg\K	.	.	.	.	.	.	.	.	.	.	.	.	.	.	.	.
16.C#/	.	.	16a\	.	16.ee\	.	16.gg\	.	.	.	.	.	.	.	.	.	.	.	.	.	.	.	.
.	.	.	16a\	.	.	.	.	.	.	.	.	.	.	.	.	.	.	.	.	.	.	.	.
32C#/JJk	.	.	.	.	32ee\JJk	.	32gg\JJk	.	.	.	.	.	.	.	.	.	.	.	.	.	.	.	.
16.C#/LL	.	.	16a\	.	16.ee\LL	.	16.gg\LL	.	.	.	.	.	.	.	.	.	.	.	.	.	.	.	.
.	.	.	16a\	.	.	.	.	.	.	.	.	.	.	.	.	.	.	.	.	.	.	.	.
32C#/K	.	.	.	.	32ee\K	.	32gg\K	.	.	.	.	.	.	.	.	.	.	.	.	.	.	.	.
16.C#/	.	.	16a\	.	16.ee\	.	16.gg\	.	.	.	.	.	.	.	.	.	.	.	.	.	.	.	.
.	.	.	16a\JJ	.	.	.	.	.	.	.	.	.	.	.	.	.	.	.	.	.	.	.	.
32C#/JJk	.	.	.	.	32ee\JJk	.	32gg\JJk	.	.	.	.	.	.	.	.	.	.	.	.	.	.	.	.
16.D/LL	5_ 3_	.	16a\LL	.	16.a/LL	.	16.ff#\LL	.	2D/	-ca-	2d\	-ca-	2a\	-ca-	.	2ff#\	.	.	.	.	2dd\	.	2ff#\
.	.	.	16a\	.	.	.	.	.	.	.	.	.	.	.	.	.	.	.	.	.	.	.	.
32D/K	.	.	.	.	32a/K	.	32ff#\K	.	.	.	.	.	.	.	.	.	.	.	.	.	.	.	.
16.D/	.	.	16a\	.	16.a/	.	16.ff#\	.	.	.	.	.	.	.	.	.	.	.	.	.	.	.	.
.	.	.	16a\	.	.	.	.	.	.	.	.	.	.	.	.	.	.	.	.	.	.	.	.
32D/JJk	.	.	.	.	32a/JJk	.	32ff#\JJk	.	.	.	.	.	.	.	.	.	.	.	.	.	.	.	.
!	!	!	!	!	!LO:LB:g=original	!	!	!	!	!	!	!	!	!	!	!	!	!	!	!	!	!	!
16.D/LL	.	.	16a\	.	16.a/LL	.	16.ff#\LL	.	.	.	.	.	.	.	.	.	.	.	.	.	.	.	.
.	.	.	16a\	.	.	.	.	.	.	.	.	.	.	.	.	.	.	.	.	.	.	.	.
32D/K	.	.	.	.	32a/K	.	32ff#\K	.	.	.	.	.	.	.	.	.	.	.	.	.	.	.	.
16.D/	.	.	16a\	.	16.a/	.	16.ff#\	.	.	.	.	.	.	.	.	.	.	.	.	.	.	.	.
.	.	.	16a\JJ	.	.	.	.	.	.	.	.	.	.	.	.	.	.	.	.	.	.	.	.
32D/JJk	.	.	.	.	32a/JJk	.	32ff#\JJk	.	.	.	.	.	.	.	.	.	.	.	.	.	.	.	.
=24	=24	=24	=24	=24	=24	=24	=24	=24	=24	=24	=24	=24	=24	=24	=24	=24	=24	=24	=24	=24	=24	=24	=24
16.D/LL	#4_ 2_	.	16dd\LL	.	16.b/LL	.	16.gg#X\LL	.	2D/	-ta	2e\	-ta	2b\	.	.	2gg#X\	-ca-	.	1ryy	1ryy	2dd\	.	2gg#X\
.	.	.	16dd\	.	.	.	.	.	.	.	.	.	.	.	.	.	.	.	.	.	.	.	.
32D/K	.	.	.	.	32b/K	.	32gg#\K	.	.	.	.	.	.	.	.	.	.	.	.	.	.	.	.
16.D/	.	.	16dd\	.	16.b/	.	16.gg#\	.	.	.	.	.	.	.	.	.	.	.	.	.	.	.	.
.	.	.	16dd\	.	.	.	.	.	.	.	.	.	.	.	.	.	.	.	.	.	.	.	.
32D/JJk	.	.	.	.	32b/JJk	.	32gg#\JJk	.	.	.	.	.	.	.	.	.	.	.	.	.	.	.	.
16.D/LL	.	.	16dd\	.	16.b/LL	.	16.gg#\LL	.	.	.	.	.	.	.	.	.	.	.	.	.	.	.	.
.	.	.	16dd\	.	.	.	.	.	.	.	.	.	.	.	.	.	.	.	.	.	.	.	.
32D/K	.	.	.	.	32b/K	.	32gg#\K	.	.	.	.	.	.	.	.	.	.	.	.	.	.	.	.
16.D/	.	.	16dd\	.	16.b/	.	16.gg#\	.	.	.	.	.	.	.	.	.	.	.	.	.	.	.	.
.	.	.	16dd\JJ	.	.	.	.	.	.	.	.	.	.	.	.	.	.	.	.	.	.	.	.
32D/JJk	.	.	.	.	32b/JJk	.	32gg#\JJk	.	.	.	.	.	.	.	.	.	.	.	.	.	.	.	.
*	*	*	*Xtremolo	*	*	*	*	*	*	*	*	*ij	*	*	*	*	*	*	*	*	*	*	*
8C#/L	x 5	.	8cc#\L	.	8b\L	.	8aa\L	.	(8C#/	mun-	8e\	pec-	8cc#\	.	.	8aa\	-ta	.	.	.	8cc#\	.	8aa\L
!	!	!	!	!	!LO:TUP:a:problem:klamra łukowa	!	!LO:TUP:a:problem:klamra łukowa	!	!	!	!	!	!	!	!	!	!	!	!	!	!	!	!
8D/	6 5	.	8e\	.	24dd\L	.	(24ff#\L	.	8D/)	.	4f#\	-cata	24dd\LL	-ta	.	24ff#\LL	mun-	.	.	.	24dd\LL	.	24ff#\L
.	.	.	.	.	24cc#\	.	24ee\	.	.	.	.	.	24cc#\	.	.	24ee\	.	.	.	.	24cc#\	.	24ee\
.	.	.	.	.	24b\JJ	.	24dd\JJ)	.	.	.	.	.	24b\JJ	.	.	24dd\JJ	.	.	.	.	24b\JJ	.	24dd\JJ
8E/	x 4	.	8e\	.	8a/L	.	8cc#\L	.	4E\	.	.	.	8a\L	mun-	.	8cc#\L	.	.	.	.	8a/L	.	8cc#\L
*	*	*	*	*	*	*	*	*	*	*	*	*Xij	*	*	*	*	*	*	*	*	*	*	*
8EE/J	x #	.	8e\J	.	8g#X/J	.	8b\J	.	.	.	8e\	mun-	8g#X\J	.	.	8b\J	.	.	.	.	8g#/J	.	8b\J
=25	=25	=25	=25	=25	=25	=25	=25	=25	=25	=25	=25	=25	=25	=25	=25	=25	=25	=25	=25	=25	=25	=25	=25
!LO:TX:a:t=pedal	!	!	!	!	!	!	!	!	!	!	!	!	!	!	!	!	!	!LO:DY:a	!	!	!	!LO:DY:a	!
4AA/	.	.	4e\	.	4a/	.	4a/	.	8AA/	-di	4e\	-di	4a\	-di	.	4a\	-di	p	1ryy	1ryy	4a/	p	4a/
*	*	*	*	*	*	*	*	*	*	*ij	*	*	*	*	*	*	*	*	*	*	*	*	*
.	.	.	.	.	.	.	.	.	8AA/	pec-	.	.	.	.	.	.	.	.	.	.	.	.	.
4AA/	.	.	4r	.	4e/	.	4gn/	.	8AA/	-ca-	4A\	pec-	4e\	pec-	.	4gn/	pec-	.	.	.	4ee\	.	4ggn\
.	.	.	.	.	.	.	.	.	8AA/	-ta	.	.	.	.	.	.	.	.	.	.	.	.	.
!	!	!	!	!	!	!	!LO:LB:g=original	!	!	!	!	!	!	!	!	!	!	!	!	!	!	!	!
!	!	!	!	!	!	!	!	!	!	!	!	!	!	!	!LO:DY:a	!	!	!	!	!	!	!	!
4AA/	.	.	2r	.	16r	.	16r	.	(>4AA/	mun-	8A\	-ca-	8d\	-ca-	p	8f#X/	-ca-	.	.	.	4dd\	.	4ffn\
.	.	.	.	.	16d/LL	.	16fn/LL	.	.	.	.	.	.	.	.	.	.	.	.	.	.	.	.
.	.	.	.	.	16d/	.	16f/	.	.	.	8A\	-ta	8d\	-ta	.	8f#/	-ta	.	.	.	.	.	.
.	.	.	.	.	16d/JJ	.	16f/JJ	.	.	.	.	.	.	.	.	.	.	.	.	.	.	.	.
4GG#X/	.	.	.	.	16r	.	16r	.	4GG#X/)	.	4B\	mun-	4d\	mun-	.	4f#/	mu(n)-	.	.	.	4dd\	.	4ff\
.	.	.	.	.	16d/LL	.	16f/LL	.	.	.	.	.	.	.	.	.	.	.	.	.	.	.	.
.	.	.	.	.	16d/	.	16f/	.	.	.	.	.	.	.	.	.	.	.	.	.	.	.	.
.	.	.	.	.	16d/JJ	.	16f/JJ	.	.	.	.	.	.	.	.	.	.	.	.	.	.	.	.
!	!	!	!	!	!	!	!	!	!	!	!	!	!LO:LB:g=original	!	!	!	!	!	!	!	!	!	!
=26	=26	=26	=26	=26	=26	=26	=26	=26	=26	=26	=26	=26	=26	=26	=26	=26	=26	=26	=26	=26	=26	=26	=26
2AA/;	.	.	1r	.	8c#X/L	.	8.e/L	.	2AA;/	-di	2A\	-di.	2c#;\	-di	.	2e;/	-di	.	1ryy	1ryy	8cc#X\L	.	8.ee\L
.	.	.	.	.	16.c#/L	.	.	.	.	.	.	.	.	.	.	.	.	.	.	.	16cc#\L	.	.
.	.	.	.	.	.	.	32e/LL	.	.	.	.	.	.	.	.	.	.	.	.	.	16dd\JJ	.	32ee\LL
.	.	.	.	.	32d/JJk	.	32f#/JJJ	.	.	.	.	.	.	.	.	.	.	.	.	.	.	.	32ff#\JJJ
.	.	.	.	.	8c#/L	.	8e/L	.	.	.	.	.	.	.	.	.	.	.	.	.	8cc#\L	.	8ee\L
.	.	.	.	.	8c#/J	.	8e/J	.	.	.	.	.	.	.	.	.	.	.	.	.	8cc#\J	.	8ee\J
2r	.	.	.	.	4c#;/	.	4e/	.	2r	.	2r	.	2r	.	.	2r	.	.	.	.	4cc#\	.	4ee\
.	.	.	.	.	4r	.	4r	.	.	.	.	.	.	.	.	.	.	.	.	.	4r	.	4r
*	*	*	*	*	*	*	*	*	*	*Xij	*	*	*	*	*	*	*	*	*	*	*	*	*
!	!	!	!	!	!	!	!	!	!	!	!LO:TX:b:t=verte Dona	!	!LO:TX:a:t=Vertatur Dona.	!	!	!	!	!	!	!	!	!	!
==	==	==	==	==	==	==	==	==	==	==	==	==	==	==	==	==	==	==	==	==	==	==	==
*-	*-	*-	*-	*-	*-	*-	*-	*-	*-	*-	*-	*-	*-	*-	*-	*-	*-	*-	*-	*-	*-	*-	*-
!!!system-decoration: s1,s2[(s3,s4,s5,s6)][(s7,s8,s9)]s10
!!!RDF**kern: > = above
!!!RDF**kern: < = below
!!!RDF**dynam: p = p:
!!!RDF**dynam: f = f:
!!!AIN: 1 alto 3 empty 2 oboe 1 organ 1 tenor 1 viola 2 violn 1 vox
!!!ENC: Marcin Jachim
!!!END: 2020-06-24
!!!EED: Leszek Kubiak
!!!EST: 2020-12-16
!!!RDF**kern: | = vertical stroke
